X: 16059
T: Green Fields Of America, The
R: reel
M: 4/4
K: Gmajor
|:AB|c2ec B2dB|AGAB AGED|GFGE DEGB|AGAB AGEG|
c2ec B2dB|AGAB AGED|G2GE DEGB|AGAB G2:|
|:DE|GABc d2Bd|e2ge dBGB|c2ec B2dB|AGAB AGED|
[1 GABc d2Bd|e2ge dBGB|cdec BcdB|AGAB G2:|
[2 gfed e2ge|dBGB AGED|GFGE DEGB|AGAB G2||

